X:1
%
T:Red House of Cardiff, The
T:Tycoch Caerdydd
B:Bennett - Alawon fy Ngwlad (1896)
R:Country Dance Tune
N:A version of Playford's "Red House"
M:4/4
L:1/8
Z:AK/Fiddler's Companion
K:F
F2f2 (fe) d2|c4 B2A2|B2d2 (dc) B2|(ABAG) F2F2|
F2f2 (fe) d2|c4 B2A2|A2F2 (EFGE)|F2A2F2z2||
(cBAG) (FGAB)|c2c2 (cBAG)|(BAGF) (EFGA)|B2 B2 (BAGF)|
(cBAG) (FGAB)|c2c2 (cBAG)|A2F2 (EFGE)|F2A2F2z2||
(GA) B2B2B2|(GA) B2B2B2|(AB) c2c2c2|(AB) c2c2c2|
(GA) B2B2B2|(GA)B2B2B2|A2F2 (FGAE)|F2A2F2z2||

